!!!OTL: Was soll ich in der Fremde tun, denn es ist ja hier so wunderschoen
!!!ARE: Europa, Mitteleuropa, Deutschland, Westfalen, Muenster
!!!SCT: D0264
!!!YEM: Copyright 1995, estate of Helmut Schaffrath.
**kern
*ICvox
*Ivox
*M4/4
*k[b-]
*F:
=1
{4c
=2
4.f
8e
4f
4g
=3
4.a
8g
4f}
{8a
8a
=4
4g
4cc
4.ee
8dd
=5
2cc
4r}
{8a
8a
=6
4.g
8a
4b-
4dd
=7
4dd
4cc
4a}
{8cc
8cc
=8
4cc
4b-
4g
8.dd
16dd
=9
4dd
4cc
4a}
{8a
8a
=10
4.g
8a
4b-
4dd
=11
4dd
4cc
4a}
{8cc
8ff
=12
4.ee
8dd
4cc
4b-
=13
2a
4r}
==
!!!AGN: Heimat - Lied
!! Inzipit = Transposition zum Lied
!!!ONB: ESAC (Essen Associative Code) Database: DVA
!!!AMT: simple quadruple
!!!AIN: vox
!!!EED: Helmut Schaffrath
!!!EEV: 1.0
*-
